X:1
T:Etude op. 21 no 15
T:Joachim Andersen
L:1/8
Q:1/8=132
M:6/8
K:Db
V:1 treble nm="Flûte" snm="Fl."
V:1
!f!"^Allegretto" .d/>.a/.a/>.a/.g/>.a/ .f/>.a/.e/>.a/.d/>.a/ | %1
 .c/>.a/.a/>.a/.d/>.a/ .a/>.a/.=d/>.a/.a/>.a/ | .e/>.a/.a/>.a/.g/>.a/ .f/>.a/._f/>.a/.e/>.a/ | %3
 .=d/>.a/.a/>.a/.e/>.a/ .a/>.a/.g/>.a/.b/>.c'/ | .d'/>.d/.d/>.d/.c'/>.d/ .d/>.d/.b/>.d/.d'/>.d/ | %5
 .c'/>.d/.d/>.d/.b/>.d/ .d/>.d/.a/>.d/.c'/>.d/ | .b/>.A/.A/>.A/.a/>.A/ .A/>.A/.g/>.A/.b/>.A/ | %7
 .a/>.d/.d/>.d/.g/>.d/ .d/>.d/.f/>.d/.a/>.d/ | .=g/>.e/.a/>.e/.b/>.e/ .=G/>.e/.f/>.e/.e/>.e/ | %9
 .a/>.e/.b/>.e/.c'/>.e/ .A/>.e/.f/>.e/.e/>.=e/ | .f/>.f/.c'/>.f/.b/>.=e/ ._e/>.e/.b/>.e/.a/>.=d/ | %11
 .f/>.e/._d/>.B/.=G/>.E/ .A/>.a/.B/>.a/.c/>.a/ | %12
 .b/>.a/.a/>.a/.e'/>.a/ .=d'/>.f/.e'/>.g/._d'/>.g/ | %13
 .c'/>.g/.g/>.g/.B/>.g/ .g/>.g/.=B/>.=g/.c/>.a/ | .b/>.a/.a/>.a/.d'/>.f/ .c'/>.=e/.d'/>.f/.b/>.f/ | %15
 .a/>.f/.f/>.f/.B/>.f/ .f/>.f/.c/>.f/.d/>.f/ | .=B/>.g/.c/>.g/.b/>.g/ .=d/>.g/.e/>.g/.b/>.g/ | %17
 .f/>.g/.e/>.g/.d/>.g/ .c/>.g/.B/>.g/.=A/>.g/ | .A/>.f/.=g/>.f/.a/>.f/ .A/>.f/.b/>.f/.c'/>.f/ | %19
 .A/>.f/.d'/>.f/.c'/>.f/ .b/>.f/.=a/>.f/._a/>.a/ | %20
 .b/>.a/.a/>.a/.e'/>.g/ .=d'/>.f/.e'/>.g/._d'/>.g/ | %21
 .c'/>.g/.g/>.g/.B/>.g/ .g/>.g/.=B/>.=g/.c/>.a/ | .b/>.a/.a/>.a/.d'/>.f/ .c'/>.=e/.d'/>.f/.b/>.f/ | %23
 .a/>.f/.f/>.f/.c/>.f/ .f/>.f/.d/>.f/.=B/>.=g/ | .c/>.a/.a/>.a/.=d/>.a/ .a/>.a/.=e/>.a/.f/>.a/ | %25
 .g/>.b/.=g/>.b/.f/>.b/ .=e/>.b/.d/>.b/.c/>.b/ | .f/>.a/.a/>.a/.g/>.a/ .a/>.a/.=g/>.a/.a/>.a/ | %27
 .b/>.a/.g/>.e/.c/>.A/ .=G/>.A/.=A/>.B/.=B/>.c/ | .d/>.a/.a/>.a/.g/>.a/ .f/>.a/.e/>.a/.d/>.a/ | %29
 .c/>.a/.a/>.a/.d/>.a/ .a/>.a/.=d/>.a/.a/>.a/ | .e/>.a/.a/>.a/.g/>.a/ .f/>.a/._f/>.a/.e/>.a/ | %31
 .=d/>.a/.a/>.a/.e/>.a/ .a/>.a/.g/>.a/.b/>.c'/ | .d'/>.d/.d/>.d/.c'/>.d/ .d/>.d/.b/>.d/.d'/>.d/ | %33
 .c'/>.d/.d/>.d/.b/>.d/ .d/>.d/.a/>.d/.c'/>.d/ | .b/>.A/.A/>.A/.a/>.A/ .A/>.A/.g/>.A/.b/>.A/ | %35
 .a/>.d/.d/>.d/.g/>.d/ .d/>.d/.f/>.d/.a/>.d/ | .d'/>.=g/.g/>.g/.c'/>.g/ .g/>.g/.b/>.g/.d'/>.g/ | %37
 .a/>.A/.A/>.A/.=g/>.A/ .A/>.A/.a/>.A/.=a/>._A/ | %38
 .b/>.=G/.d/>.f/.=d/>.e/ .c'/>.A/._g/>.b/.=g/>.a/ | .d'/>.d/.d/>.a/.g/>.a/ .f/>.a/.e/>.a/.d/>.a/ | %40
 .=e/>.=A/.A/>.e/.=d/>.e/ .^c/>.e/.=B/>.e/.A/>.B/ | %41
 ._d/>.d'/.d'/>.A/.G/>.d'/ .F/>.d'/.E/>.d'/.D/>.E/ | %42
 .=E/>.=e'/.e'/>.e'/.=d'/>.e'/ .^c'/>.e'/.=b/>.e'/.=a/>.b/ | %43
 ._d'/>.f'/.d'/>.f'/.a/>.d'/ .a/>.d'/.f/>.a/.f/>.a/ | .d/>.f/.d/>.f/.A/>.d/ .A/>.d/.F/>.A/.F/>.A/ | %45
 .D/>.F/.A/>.d/.f/>.a/ .d'/>.f'/.e'/>.d'/.a/>.f/ | .d/>.d/.d/>.d'/.d'/>.[Dd]/ .[Dd] z z |] %47

